packages/core/src/svgs/tokens/branded/TRCL.svg

<svg width="24" height="24" viewBox="0 0 24 24" fill="none" xmlns="http://www.w3.org/2000/svg">
<path d="M3.47051 11.1177L2 12.2941C2 8.17667 4.90573 2.58875 11.376 2.58875C14.7346 2.58875 17.1873 3.87691 19.0226 5.6474L19.5813 5.53564L19.2756 5.9062C21.0595 7.7891 22.0367 10.2947 21.9989 12.8882C21.9989 17.3585 20.6284 20.4289 19.9402 21.4113C16.705 20.2348 16.1168 17.2939 16.1168 16.1174C16.1168 15.4468 16.2992 14.9586 16.5051 14.4292C16.7403 13.8057 16.9815 13.1765 16.9815 12C16.9815 11.4117 16.8522 9.94126 15.9639 8.42959L10.2348 12.8V12.8882C10.2345 13.4597 10.0492 14.0159 9.70661 14.4734C9.36399 14.9309 8.88249 15.2652 8.33409 15.4263C7.7857 15.5875 7.19987 15.5668 6.66424 15.3673C6.12859 15.1678 5.6719 14.8004 5.36246 14.3197C5.05303 13.8392 4.90746 13.2713 4.94754 12.7012C4.9876 12.131 5.21116 11.5892 5.58479 11.1566C5.9584 10.724 6.46201 10.424 7.02029 10.3014C7.57857 10.1788 8.16153 10.2403 8.68198 10.4765L15.2287 7.41789C14.264 6.35912 12.7464 5.52975 10.4936 5.52975C5.78803 5.52975 3.8646 9.259 3.47051 11.1177Z" fill="url(#paint0_linear_364_5014)"/>
<defs>
<linearGradient id="paint0_linear_364_5014" x1="2.81761" y1="8.47077" x2="21.3459" y2="9.05897" gradientUnits="userSpaceOnUse">
<stop stop-color="#101BAB"/>
<stop offset="1" stop-color="#111B38"/>
</linearGradient>
</defs>
</svg>

<svg xmlns="http://www.w3.org/2000/svg" width="24" height="24" fill="none" viewBox="0 0 24 24">
    <path fill="url(#TRCL__a)" d="M3.47 11.118 2 12.294C2 8.177 4.906 2.59 11.376 2.59c3.359 0 5.811 1.288 7.647 3.058l.558-.111-.305.37a9.94 9.94 0 0 1 2.723 6.982c0 4.47-1.37 7.54-2.059 8.523-3.235-1.176-3.823-4.117-3.823-5.294 0-.67.182-1.158.388-1.688.235-.623.477-1.252.477-2.429 0-.588-.13-2.059-1.018-3.57l-5.73 4.37v.088a2.647 2.647 0 1 1-1.552-2.411l6.547-3.06c-.965-1.058-2.483-1.887-4.735-1.887-4.706 0-6.63 3.729-7.023 5.588"/>
    <defs>
        <linearGradient id="TRCL__a" x1="2.818" x2="21.346" y1="8.471" y2="9.059" gradientUnits="userSpaceOnUse">
            <stop stop-color="#101BAB"/>
            <stop offset="1" stop-color="#111B38"/>
        </linearGradient>
    </defs>
</svg>
